images/ProcessIcons/Design.svg

<svg width="24" height="24" viewBox="0 0 24 24" fill="none" xmlns="http://www.w3.org/2000/svg">
<path d="M5.575 2.07383C5.70232 2.13505 5.80975 2.23098 5.88494 2.35057C5.96013 2.47017 6.00002 2.60857 6 2.74983C6 3.57983 6.312 4.05783 6.703 4.63983L6.732 4.68183C7.064 5.17583 7.5 5.82283 7.5 6.74983C7.5 7.69583 7.023 8.52983 6.296 9.02483C6.487 9.18483 6.656 9.38183 6.802 9.61783C7.278 10.3878 7.5 11.5648 7.5 13.2548C7.5 14.9668 7.27 17.0228 6.895 18.6648C6.709 19.4808 6.478 20.2338 6.203 20.7988C6.07317 21.08 5.90119 21.3396 5.693 21.5688C5.487 21.7798 5.17 22.0048 4.75 22.0048C4.33 22.0048 4.013 21.7798 3.808 21.5688C3.59921 21.3401 3.42717 21.0803 3.298 20.7988C3.022 20.2328 2.791 19.4808 2.605 18.6638C2.21495 16.8866 2.01217 15.0733 2 13.2538C2 11.5638 2.222 10.3878 2.698 9.61783C2.8338 9.39433 3.00464 9.19411 3.204 9.02483C2.83277 8.7728 2.52894 8.43366 2.31905 8.03708C2.10917 7.64049 1.99963 7.19853 2 6.74983C2 6.38183 2 5.74883 2.383 4.93183C2.758 4.13183 3.471 3.21283 4.781 2.16383C4.89141 2.07552 5.02453 2.02021 5.16502 2.00428C5.3055 1.98836 5.44763 2.01247 5.575 2.07383V2.07383ZM3.5 6.74883V6.74983C3.5 7.08135 3.6317 7.3993 3.86612 7.63372C4.10054 7.86814 4.41848 7.99983 4.75 7.99983C5.08152 7.99983 5.39946 7.86814 5.63388 7.63372C5.8683 7.3993 6 7.08135 6 6.74983C6 6.31083 5.815 6.00683 5.458 5.47583L5.446 5.45783C5.217 5.11783 4.946 4.71483 4.754 4.19783C4.211 4.74983 3.911 5.20783 3.742 5.56783C3.5 6.08383 3.5 6.45083 3.5 6.74783V6.74883ZM3.974 10.4058C3.726 10.8078 3.5 11.6318 3.5 13.2548C3.5 14.8558 3.718 16.7998 4.067 18.3308C4.243 19.1008 4.443 19.7258 4.646 20.1418C4.683 20.2188 4.718 20.2828 4.75 20.3368C4.782 20.2828 4.817 20.2188 4.854 20.1418C5.057 19.7258 5.257 19.0998 5.433 18.3308C5.783 16.8008 6 14.8568 6 13.2548C6 11.6318 5.774 10.8078 5.526 10.4058C5.45121 10.2705 5.33816 10.1602 5.201 10.0888C5.05899 10.027 4.90476 9.99826 4.75 10.0048C4.55 10.0048 4.407 10.0358 4.299 10.0888C4.16184 10.1602 4.04879 10.2705 3.974 10.4058V10.4058ZM10 14.9178C9.47021 14.829 8.95487 14.6689 8.468 14.4418C8.49727 13.8747 8.50561 13.3066 8.493 12.7388C8.944 13.0418 9.453 13.2648 10 13.3888V10.4998C10 10.102 10.158 9.72048 10.4393 9.43917C10.7206 9.15787 11.1022 8.99983 11.5 8.99983H15.5C15.5 8.16053 15.2652 7.33796 14.8222 6.62507C14.3792 5.91218 13.7457 5.33738 12.9933 4.96561C12.2408 4.59384 11.3993 4.43993 10.564 4.52126C9.72861 4.60258 8.93264 4.91591 8.266 5.42583C8.066 4.87283 7.781 4.44983 7.583 4.15583L7.543 4.09583C8.44146 3.46248 9.49664 3.08812 10.5934 3.01362C11.6901 2.93912 12.7862 3.16735 13.7621 3.67338C14.7379 4.17942 15.556 4.94382 16.127 5.88313C16.698 6.82245 17 7.90058 17 8.99983H20.5C20.8978 8.99983 21.2794 9.15787 21.5607 9.43917C21.842 9.72048 22 10.102 22 10.4998V19.4998C22 19.8977 21.842 20.2792 21.5607 20.5605C21.2794 20.8418 20.8978 20.9998 20.5 20.9998H11.5C11.1022 20.9998 10.7206 20.8418 10.4393 20.5605C10.158 20.2792 10 19.8977 10 19.4998V14.9168V14.9178ZM11.5 14.9808V19.5008H20.5V10.5008H16.81C16.4984 11.7059 15.8201 12.7843 14.8688 13.5869C13.9175 14.3895 12.7403 14.8766 11.5 14.9808V14.9808ZM15.244 10.5008H11.5V13.4738C12.3402 13.3796 13.1369 13.0508 13.799 12.5251C14.4611 11.9993 14.9619 11.2978 15.244 10.5008V10.5008Z" fill="black"/>
</svg>

<svg xmlns="http://www.w3.org/2000/svg" width="24" height="24" fill="none" xmlns:v="https://vecta.io/nano"><path d="M5.575 2.074A.75.75 0 0 1 6 2.75c0 .83.312 1.308.703 1.89l.029.042c.332.494.768 1.141.768 2.068 0 .946-.477 1.78-1.204 2.275.191.16.36.357.506.593.476.77.698 1.947.698 3.637 0 1.712-.23 3.768-.605 5.41-.186.816-.417 1.569-.692 2.134a3.04 3.04 0 0 1-.51.77c-.206.211-.523.436-.943.436s-.737-.225-.942-.436c-.209-.229-.381-.488-.51-.77-.276-.566-.507-1.318-.693-2.135A26.05 26.05 0 0 1 2 13.254c0-1.69.222-2.866.698-3.636a2.44 2.44 0 0 1 .506-.593c-.371-.252-.675-.591-.885-.988S2 7.199 2 6.75c0-.368 0-1.001.383-1.818.375-.8 1.088-1.719 2.398-2.768a.75.75 0 0 1 .794-.09h0zM3.5 6.749v.001A1.25 1.25 0 0 0 4.75 8 1.25 1.25 0 0 0 6 6.75c0-.439-.185-.743-.542-1.274l-.012-.018c-.229-.34-.5-.743-.692-1.26-.543.552-.843 1.01-1.012 1.37-.242.516-.242.883-.242 1.18v.001zm.474 3.657c-.248.402-.474 1.226-.474 2.849a24.59 24.59 0 0 0 .567 5.076c.176.77.376 1.395.579 1.811l.104.195.104-.195c.203-.416.403-1.042.579-1.811.35-1.53.567-3.474.567-5.076 0-1.623-.226-2.447-.474-2.849-.075-.135-.188-.246-.325-.317a1.02 1.02 0 0 0-.451-.084c-.2 0-.343.031-.451.084-.137.071-.25.182-.325.317h0zM10 14.918a5.95 5.95 0 0 1-1.532-.476l.025-1.703c.451.303.96.526 1.507.65V10.5A1.5 1.5 0 0 1 11.5 9h4a4.5 4.5 0 0 0-2.507-4.034 4.5 4.5 0 0 0-4.727.46c-.2-.553-.485-.976-.683-1.27l-.04-.06a6 6 0 0 1 6.219-.422A6 6 0 0 1 17 9h3.5a1.5 1.5 0 0 1 1.5 1.5v9a1.5 1.5 0 0 1-1.5 1.5h-9a1.5 1.5 0 0 1-1.5-1.5v-4.583.001zm1.5.063v4.52h9v-9h-3.69c-.312 1.205-.99 2.284-1.941 3.086s-2.129 1.29-3.369 1.394h0zm3.744-4.48H11.5v2.973c.84-.094 1.637-.423 2.299-.949s1.163-1.227 1.445-2.024h0z" fill="#000"/></svg>
